X:1
T:The Golden Vanity
M:6/8
L:1/8
K:C
 C| E2 D E2 F| G3 G2 F| E2- C D2 B,| C3- C2 G| A3G-A B| c3 c2 A| G2 FD-E F|\
 G3- GG G| A2 G A2 B| c2 d c2 c| G3 c2 E| E2 D C2 D| E2 G- A2 G| G2- E C3|\
 c3 G3| c3 C2 D| E2- G A2 G| G2- FD-F-E| C3- C2||

